; generated by K3D LA calibration v1.2
; Written by Dmitry Sorkin @ http://k3d.tech/
; and Kekht
; ====================
; Поддержите выход новых калибраторов, инструкций и видео!
; Пожертвование из РФ: https://donate.stream/dmitrysorkin
; Пожертвование из-за рубежа: https://www.donationalerts.com/r/dsorkin
; ====================
; Segment:20 K-Factor:0.2
; Segment:19 K-Factor:0.195
; Segment:18 K-Factor:0.189
; Segment:17 K-Factor:0.184
; Segment:16 K-Factor:0.179
; Segment:15 K-Factor:0.174
; Segment:14 K-Factor:0.168
; Segment:13 K-Factor:0.163
; Segment:12 K-Factor:0.158
; Segment:11 K-Factor:0.153
; Segment:10 K-Factor:0.147
; Segment:9 K-Factor:0.142
; Segment:8 K-Factor:0.137
; Segment:7 K-Factor:0.132
; Segment:6 K-Factor:0.126
; Segment:5 K-Factor:0.121
; Segment:4 K-Factor:0.116
; Segment:3 K-Factor:0.111
; Segment:2 K-Factor:0.105
; Segment:1 K-Factor:0.1
; Bedsize: 220:220
; Temperature H:210 B:60 °C
; Line width: 0.4-0.4 mm
; Layer height: 0.28 mm
; Segments: 20x3 mm
; Print speed: 30, 10, 100 mm/s
; Retractions: 1.2mm @ 30 mm/s
M104 S150
M190 S60
M109 S210
M900 K0.1
G28
G29
G92 E0
G90
M82
M106 S0
M221 S100
G1 Z0.28
G92 Z0.28
G1 X15 Y60 F9000
G1 X205 E8.8472 F1800
G1 Y60.4 F1800
G1 X15 E17.6944 F1800
G1 E16.49 F1800
G1 X85.2 Y134.8 F9000
G1 E17.69 F1800
G1 Y134.22 F1800
G1 X85.78 Y134.8 E17.7331 F1800
G1 X86.35 F1800
G1 X85.2 Y133.65 E17.8106 F1800
G1 Y133.07 F1800
G1 X86.93 Y134.8 E17.9267 F1800
G1 X87.51 F1800
G1 X85.2 Y132.49 E18.0816 F1800
G1 Y131.92 F1800
G1 X88.08 Y134.8 E18.2752 F1800
G1 X88.66 F1800
G1 X85.2 Y131.34 E18.5076 F1800
G1 Y130.76 F1800
G1 X89.24 Y134.8 E18.7786 F1800
G1 X89.81 F1800
G1 X85.2 Y130.19 E19.0884 F1800
G1 Y129.61 F1800
G1 X90.39 Y134.8 E19.4369 F1800
G1 X90.97 F1800
G1 X85.2 Y129.03 E19.8241 F1800
G1 Y128.46 F1800
G1 X91.54 Y134.8 E20.25 F1800
G1 X92.12 F1800
G1 X85.2 Y127.88 E20.7147 F1800
G1 Y127.3 F1800
G1 X92.7 Y134.8 E21.2181 F1800
G1 X93.27 F1800
G1 X85.2 Y126.73 E21.7602 F1800
G1 Y126.15 F1800
G1 X93.85 Y134.8 E22.341 F1800
G1 X94.43 F1800
G1 X85.2 Y125.57 E22.9606 F1800
G1 Y125 F1800
G1 X95 Y134.8 E23.6189 F1800
G1 X95.58 F1800
G1 X85.2 Y124.42 E24.3159 F1800
G1 Y123.84 F1800
G1 X96.16 Y134.8 E25.0516 F1800
G1 X96.73 F1800
G1 X85.2 Y123.27 E25.826 F1800
G1 Y122.69 F1800
G1 X97.31 Y134.8 E26.6392 F1800
G1 X97.89 F1800
G1 X85.2 Y122.11 E27.4911 F1800
G1 Y121.53 F1800
G1 X98.47 Y134.8 E28.3817 F1800
G1 X99.04 F1800
G1 X85.2 Y120.96 E29.311 F1800
G1 Y120.38 F1800
G1 X99.62 Y134.8 E30.2791 F1800
G1 X100.2 F1800
G1 X85.2 Y119.8 E31.2858 F1800
G1 Y119.23 F1800
G1 X100.77 Y134.8 E32.3313 F1800
G1 X101.35 F1800
G1 X85.2 Y118.65 E33.4155 F1800
G1 Y118.07 F1800
G1 X101.93 Y134.8 E34.5385 F1800
G1 X102.5 F1800
G1 X85.2 Y117.5 E35.7002 F1800
G1 Y116.92 F1800
G1 X103.08 Y134.8 E36.9005 F1800
G1 X103.66 F1800
G1 X85.2 Y116.34 E38.1396 F1800
G1 Y115.77 F1800
G1 X104.23 Y134.8 E39.4175 F1800
G1 X104.81 F1800
G1 X85.2 Y115.19 E40.734 F1800
G1 Y114.61 F1800
G1 X105.39 Y134.8 E42.0893 F1800
G1 X105.96 F1800
G1 X85.2 Y114.04 E43.4833 F1800
G1 Y113.46 F1800
G1 X106.54 Y134.8 E44.916 F1800
G1 X107.12 F1800
G1 X85.2 Y112.88 E46.3874 F1800
G1 Y112.31 F1800
G1 X107.69 Y134.8 E47.8976 F1800
G1 X108.27 F1800
G1 X85.2 Y111.73 E49.4465 F1800
G1 Y111.15 F1800
G1 X108.85 Y134.8 E51.0341 F1800
G1 X109.42 F1800
G1 X85.2 Y110.58 E52.6604 F1800
G1 Y110 F1800
G1 X110 Y134.8 E54.3255 F1800
G1 X110.58 F1800
G1 X85.2 Y109.42 E56.0292 F1800
G1 Y108.85 F1800
G1 X111.15 Y134.8 E57.7717 F1800
G1 X111.73 F1800
G1 X85.2 Y108.27 E59.5529 F1800
G1 Y107.69 F1800
G1 X112.31 Y134.8 E61.3729 F1800
G1 X112.88 F1800
G1 X85.2 Y107.12 E63.2315 F1800
G1 Y106.54 F1800
G1 X113.46 Y134.8 E65.1289 F1800
G1 X114.04 F1800
G1 X85.2 Y105.96 E67.065 F1800
G1 Y105.39 F1800
G1 X114.61 Y134.8 E69.0398 F1800
G1 X115.19 F1800
G1 X85.2 Y104.81 E71.0534 F1800
G1 Y104.23 F1800
G1 X115.77 Y134.8 E73.1057 F1800
G1 X116.34 F1800
G1 X85.2 Y103.66 E75.1967 F1800
G1 Y103.08 F1800
G1 X116.92 Y134.8 E77.3264 F1800
G1 X117.5 F1800
G1 X85.2 Y102.5 E79.4948 F1800
G1 Y101.93 F1800
G1 X118.07 Y134.8 E81.702 F1800
G1 X118.65 F1800
G1 X85.2 Y101.35 E83.9478 F1800
G1 Y100.77 F1800
G1 X119.23 Y134.8 E86.2324 F1800
G1 X119.8 F1800
G1 X85.2 Y100.2 E88.5558 F1800
G1 Y99.62 F1800
G1 X120.38 Y134.8 E90.9178 F1800
G1 X120.96 F1800
G1 X85.2 Y99.04 E93.3186 F1800
G1 Y98.47 F1800
G1 X121.53 Y134.8 E95.7581 F1800
G1 X122.11 F1800
G1 X85.2 Y97.89 E98.2363 F1800
G1 Y97.31 F1800
G1 X122.69 Y134.8 E100.7532 F1800
G1 X123.27 F1800
G1 X85.2 Y96.73 E103.3089 F1800
G1 Y96.16 F1800
G1 X123.84 Y134.8 E105.9033 F1800
G1 X124.42 F1800
G1 X85.2 Y95.58 E108.5364 F1800
G1 Y95 F1800
G1 X125 Y134.8 E111.2082 F1800
G1 X125.57 F1800
G1 X85.2 Y94.43 E113.9187 F1800
G1 Y93.85 F1800
G1 X126.15 Y134.8 E116.668 F1800
G1 X126.73 F1800
G1 X85.2 Y93.27 E119.456 F1800
G1 Y92.7 F1800
G1 X127.3 Y134.8 E122.2827 F1800
G1 X127.88 F1800
G1 X85.2 Y92.12 E125.1481 F1800
G1 Y91.54 F1800
G1 X128.46 Y134.8 E128.0523 F1800
G1 X129.03 F1800
G1 X85.2 Y90.97 E130.9952 F1800
G1 Y90.39 F1800
G1 X129.61 Y134.8 E133.9768 F1800
G1 X130.19 F1800
G1 X85.2 Y89.81 E136.9971 F1800
G1 Y89.24 F1800
G1 X130.76 Y134.8 E140.0561 F1800
G1 X131.34 F1800
G1 X85.2 Y88.66 E143.1539 F1800
G1 Y88.08 F1800
G1 X131.92 Y134.8 E146.2904 F1800
G1 X132.49 F1800
G1 X85.2 Y87.51 E149.4656 F1800
G1 Y86.93 F1800
G1 X133.07 Y134.8 E152.6795 F1800
G1 X133.65 F1800
G1 X85.2 Y86.35 E155.9322 F1800
G1 Y85.78 F1800
G1 X134.22 Y134.8 E159.2235 F1800
G1 X134.8 F1800
G1 X85.2 Y85.2 E162.5536 F1800
G1 X85.78 F1800
G1 X134.8 Y134.22 E165.845 F1800
G1 Y133.65 F1800
G1 X86.35 Y85.2 E169.0977 F1800
G1 X86.93 F1800
G1 X134.8 Y133.07 E172.3116 F1800
G1 Y132.49 F1800
G1 X87.51 Y85.2 E175.4868 F1800
G1 X88.08 F1800
G1 X134.8 Y131.92 E178.6233 F1800
G1 Y131.34 F1800
G1 X88.66 Y85.2 E181.7211 F1800
G1 X89.24 F1800
G1 X134.8 Y130.76 E184.7801 F1800
G1 Y130.19 F1800
G1 X89.81 Y85.2 E187.8004 F1800
G1 X90.39 F1800
G1 X134.8 Y129.61 E190.782 F1800
G1 Y129.03 F1800
G1 X90.97 Y85.2 E193.7249 F1800
G1 X91.54 F1800
G1 X134.8 Y128.46 E196.6291 F1800
G1 Y127.88 F1800
G1 X92.12 Y85.2 E199.4945 F1800
G1 X92.7 F1800
G1 X134.8 Y127.3 E202.3212 F1800
G1 Y126.73 F1800
G1 X93.27 Y85.2 E205.1092 F1800
G1 X93.85 F1800
G1 X134.8 Y126.15 E207.8585 F1800
G1 Y125.57 F1800
G1 X94.43 Y85.2 E210.569 F1800
G1 X95 F1800
G1 X134.8 Y125 E213.2408 F1800
G1 Y124.42 F1800
G1 X95.58 Y85.2 E215.8739 F1800
G1 X96.16 F1800
G1 X134.8 Y123.84 E218.4683 F1800
G1 Y123.27 F1800
G1 X96.73 Y85.2 E221.024 F1800
G1 X97.31 F1800
G1 X134.8 Y122.69 E223.5409 F1800
G1 Y122.11 F1800
G1 X97.89 Y85.2 E226.0191 F1800
G1 X98.47 F1800
G1 X134.8 Y121.53 E228.4586 F1800
G1 Y120.96 F1800
G1 X99.04 Y85.2 E230.8594 F1800
G1 X99.62 F1800
G1 X134.8 Y120.38 E233.2214 F1800
G1 Y119.8 F1800
G1 X100.2 Y85.2 E235.5447 F1800
G1 X100.77 F1800
G1 X134.8 Y119.23 E237.8293 F1800
G1 Y118.65 F1800
G1 X101.35 Y85.2 E240.0752 F1800
G1 X101.93 F1800
G1 X134.8 Y118.07 E242.2824 F1800
G1 Y117.5 F1800
G1 X102.5 Y85.2 E244.4508 F1800
G1 X103.08 F1800
G1 X134.8 Y116.92 E246.5805 F1800
G1 Y116.34 F1800
G1 X103.66 Y85.2 E248.6715 F1800
G1 X104.23 F1800
G1 X134.8 Y115.77 E250.7238 F1800
G1 Y115.19 F1800
G1 X104.81 Y85.2 E252.7373 F1800
G1 X105.39 F1800
G1 X134.8 Y114.61 E254.7121 F1800
G1 Y114.04 F1800
G1 X105.96 Y85.2 E256.6483 F1800
G1 X106.54 F1800
G1 X134.8 Y113.46 E258.5456 F1800
G1 Y112.88 F1800
G1 X107.12 Y85.2 E260.4043 F1800
G1 X107.69 F1800
G1 X134.8 Y112.31 E262.2242 F1800
G1 Y111.73 F1800
G1 X108.27 Y85.2 E264.0054 F1800
G1 X108.85 F1800
G1 X134.8 Y111.15 E265.7479 F1800
G1 Y110.58 F1800
G1 X109.42 Y85.2 E267.4517 F1800
G1 X110 F1800
G1 X134.8 Y110 E269.1168 F1800
G1 Y109.42 F1800
G1 X110.58 Y85.2 E270.7431 F1800
G1 X111.15 F1800
G1 X134.8 Y108.85 E272.3307 F1800
G1 Y108.27 F1800
G1 X111.73 Y85.2 E273.8796 F1800
G1 X112.31 F1800
G1 X134.8 Y107.69 E275.3897 F1800
G1 Y107.12 F1800
G1 X112.88 Y85.2 E276.8612 F1800
G1 X113.46 F1800
G1 X134.8 Y106.54 E278.2939 F1800
G1 Y105.96 F1800
G1 X114.04 Y85.2 E279.6879 F1800
G1 X114.61 F1800
G1 X134.8 Y105.39 E281.0432 F1800
G1 Y104.81 F1800
G1 X115.19 Y85.2 E282.3597 F1800
G1 X115.77 F1800
G1 X134.8 Y104.23 E283.6375 F1800
G1 Y103.66 F1800
G1 X116.34 Y85.2 E284.8766 F1800
G1 X116.92 F1800
G1 X134.8 Y103.08 E286.077 F1800
G1 Y102.5 F1800
G1 X117.5 Y85.2 E287.2387 F1800
G1 X118.07 F1800
G1 X134.8 Y101.93 E288.3616 F1800
G1 Y101.35 F1800
G1 X118.65 Y85.2 E289.4458 F1800
G1 X119.23 F1800
G1 X134.8 Y100.77 E290.4913 F1800
G1 Y100.2 F1800
G1 X119.8 Y85.2 E291.4981 F1800
G1 X120.38 F1800
G1 X134.8 Y99.62 E292.4662 F1800
G1 Y99.04 F1800
G1 X120.96 Y85.2 E293.3955 F1800
G1 X121.53 F1800
G1 X134.8 Y98.47 E294.2861 F1800
G1 Y97.89 F1800
G1 X122.11 Y85.2 E295.138 F1800
G1 X122.69 F1800
G1 X134.8 Y97.31 E295.9511 F1800
G1 Y96.73 F1800
G1 X123.27 Y85.2 E296.7256 F1800
G1 X123.84 F1800
G1 X134.8 Y96.16 E297.4613 F1800
G1 Y95.58 F1800
G1 X124.42 Y85.2 E298.1583 F1800
G1 X125 F1800
G1 X134.8 Y95 E298.8166 F1800
G1 Y94.43 F1800
G1 X125.57 Y85.2 E299.4361 F1800
G1 X126.15 F1800
G1 X134.8 Y93.85 E300.017 F1800
G1 Y93.27 F1800
G1 X126.73 Y85.2 E300.5591 F1800
G1 X127.3 F1800
G1 X134.8 Y92.7 E301.0625 F1800
G1 Y92.12 F1800
G1 X127.88 Y85.2 E301.5271 F1800
G1 X128.46 F1800
G1 X134.8 Y91.54 E301.9531 F1800
G1 Y90.97 F1800
G1 X129.03 Y85.2 E302.3403 F1800
G1 X129.61 F1800
G1 X134.8 Y90.39 E302.6888 F1800
G1 Y89.81 F1800
G1 X130.19 Y85.2 E302.9986 F1800
G1 X130.76 F1800
G1 X134.8 Y89.24 E303.2696 F1800
G1 Y88.66 F1800
G1 X131.34 Y85.2 E303.5019 F1800
G1 X131.92 F1800
G1 X134.8 Y88.08 E303.6956 F1800
G1 Y87.51 F1800
G1 X132.49 Y85.2 E303.8504 F1800
G1 X133.07 F1800
G1 X134.8 Y86.93 E303.9666 F1800
G1 Y86.35 F1800
G1 X133.65 Y85.2 E304.0441 F1800
G1 X134.22 F1800
G1 X134.8 Y85.78 E304.0828 F1800
G1 Y85.2 F1800
;layer #1
M106 S0
G1 X110 Y129.8 Z0.56 F9000
G1 X129.6 E304.9954 F6000
G1 Y120.2 E305.4425 F6000
G1 Y100.2 E306.3737 F600
G1 Y90.6 E306.8208 F6000
G1 X111 E307.6868 F6000
G1 X109 E307.78 F600
G1 X90.4 E308.6461 F6000
G1 Y110.1 E309.5541 F6000
G1 Y110.3 F600
G1 Y129.8 E310.4621 F6000
G1 X110 E311.3747 F6000
G1 Y129.4 F6000
G1 X129.2 E312.2688 F6000
G1 Y120.2 E312.6972 F6000
G1 Y100.2 E313.6284 F600
G1 Y91 E314.0568 F6000
G1 X111 E314.9043 F6000
G1 X109 E314.9974 F600
G1 X90.8 E315.8449 F6000
G1 Y110.1 E316.7343 F6000
G1 Y110.3 F600
G1 Y129.4 E317.6236 F6000
G1 X110 E318.5177 F6000
;layer #2
M106 S0
G1 X110 Y129.8 Z0.84 F9000
G1 X129.6 E319.4303 F6000
G1 Y120.2 E319.8774 F6000
G1 Y100.2 E320.8086 F600
G1 Y90.6 E321.2557 F6000
G1 X111 E322.1217 F6000
G1 X109 E322.2149 F600
G1 X90.4 E323.081 F6000
G1 Y110.1 E323.989 F6000
G1 Y110.3 F600
G1 Y129.8 E324.897 F6000
G1 X110 E325.8096 F6000
G1 Y129.4 F6000
G1 X129.2 E326.7037 F6000
G1 Y120.2 E327.1321 F6000
G1 Y100.2 E328.0633 F600
G1 Y91 E328.4917 F6000
G1 X111 E329.3392 F6000
G1 X109 E329.4323 F600
G1 X90.8 E330.2798 F6000
G1 Y110.1 E331.1692 F6000
G1 Y110.3 F600
G1 Y129.4 E332.0585 F6000
G1 X110 E332.9526 F6000
;layer #3
M106 S0
G1 X110 Y129.8 Z1.12 F9000
G1 X129.6 E333.8652 F6000
G1 Y120.2 E334.3123 F6000
G1 Y100.2 E335.2435 F600
G1 Y90.6 E335.6906 F6000
G1 X111 E336.5566 F6000
G1 X109 E336.6498 F600
G1 X90.4 E337.5159 F6000
G1 Y110.1 E338.4239 F6000
G1 Y110.3 F600
G1 Y129.8 E339.3319 F6000
G1 X110 E340.2445 F6000
G1 Y129.4 F6000
G1 X129.2 E341.1386 F6000
G1 Y120.2 E341.567 F6000
G1 Y100.2 E342.4982 F600
G1 Y91 E342.9266 F6000
G1 X111 E343.7741 F6000
G1 X109 E343.8672 F600
G1 X90.8 E344.7147 F6000
G1 Y110.1 E345.6041 F6000
G1 Y110.3 F600
G1 Y129.4 E346.4934 F6000
G1 X110 E347.3875 F6000
;layer #4
G1 X110 Y129.8 Z1.4 F9000
G1 X129.6 E348.3001 F6000
G1 Y120.2 E348.7472 F6000
G1 Y100.2 E349.6784 F600
G1 Y90.6 E350.1255 F6000
G1 X111 E350.9915 F6000
G1 X109 E351.0847 F600
G1 X90.4 E351.9508 F6000
G1 Y110.1 E352.8588 F6000
G1 Y110.3 F600
G1 Y129.8 E353.7668 F6000
G1 X110 E354.6794 F6000
G1 Y129.4 F6000
G1 X129.2 E355.5735 F6000
G1 Y120.2 E356.0019 F6000
G1 Y100.2 E356.9331 F600
G1 Y91 E357.3615 F6000
G1 X111 E358.209 F6000
G1 X109 E358.3021 F600
G1 X90.8 E359.1496 F6000
G1 Y110.1 E360.039 F6000
G1 Y110.3 F600
G1 Y129.4 E360.9283 F6000
G1 X110 E361.8224 F6000
;layer #5
G1 X110 Y129.8 Z1.68 F9000
G1 X129.6 E362.735 F6000
G1 Y120.2 E363.182 F6000
G1 Y100.2 E364.1133 F600
G1 Y90.6 E364.5603 F6000
G1 X111 E365.4264 F6000
G1 X109 E365.5196 F600
G1 X90.4 E366.3857 F6000
G1 Y110.1 E367.2937 F6000
G1 Y110.3 F600
G1 Y129.8 E368.2017 F6000
G1 X110 E369.1143 F6000
G1 Y129.4 F6000
G1 X129.2 E370.0084 F6000
G1 Y120.2 E370.4367 F6000
G1 Y100.2 E371.368 F600
G1 Y91 E371.7964 F6000
G1 X111 E372.6439 F6000
G1 X109 E372.737 F600
G1 X90.8 E373.5845 F6000
G1 Y110.1 E374.4739 F6000
G1 Y110.3 F600
G1 Y129.4 E375.3632 F6000
G1 X110 E376.2573 F6000
;layer #6
G1 X110 Y129.8 Z1.96 F9000
G1 X129.6 E377.1699 F6000
G1 Y120.2 E377.6169 F6000
G1 Y100.2 E378.5482 F600
G1 Y90.6 E378.9952 F6000
G1 X111 E379.8613 F6000
G1 X109 E379.9545 F600
G1 X90.4 E380.8206 F6000
G1 Y110.1 E381.7286 F6000
G1 Y110.3 F600
G1 Y129.8 E382.6366 F6000
G1 X110 E383.5492 F6000
G1 Y129.4 F6000
G1 X129.2 E384.4433 F6000
G1 Y120.2 E384.8716 F6000
G1 Y100.2 E385.8029 F600
G1 Y91 E386.2313 F6000
G1 X111 E387.0788 F6000
G1 X109 E387.1719 F600
G1 X90.8 E388.0194 F6000
G1 Y110.1 E388.9088 F6000
G1 Y110.3 F600
G1 Y129.4 E389.7981 F6000
G1 X110 E390.6922 F6000
;layer #7
G1 X110 Y129.8 Z2.24 F9000
G1 X129.6 E391.6048 F6000
G1 Y120.2 E392.0518 F6000
G1 Y100.2 E392.9831 F600
G1 Y90.6 E393.4301 F6000
G1 X111 E394.2962 F6000
G1 X109 E394.3894 F600
G1 X90.4 E395.2555 F6000
G1 Y110.1 E396.1635 F6000
G1 Y110.3 F600
G1 Y129.8 E397.0715 F6000
G1 X110 E397.9841 F6000
G1 Y129.4 F6000
G1 X129.2 E398.8782 F6000
G1 Y120.2 E399.3065 F6000
G1 Y100.2 E400.2378 F600
G1 Y91 E400.6662 F6000
G1 X111 E401.5137 F6000
G1 X109 E401.6068 F600
G1 X90.8 E402.4543 F6000
G1 Y110.1 E403.3437 F6000
G1 Y110.3 F600
G1 Y129.4 E404.233 F6000
G1 X110 E405.1271 F6000
;layer #8
G1 X110 Y129.8 Z2.52 F9000
G1 X129.6 E406.0397 F6000
G1 Y120.2 E406.4867 F6000
G1 Y100.2 E407.418 F600
G1 Y90.6 E407.865 F6000
G1 X111 E408.7311 F6000
G1 X109 E408.8243 F600
G1 X90.4 E409.6904 F6000
G1 Y110.1 E410.5984 F6000
G1 Y110.3 F600
G1 Y129.8 E411.5064 F6000
G1 X110 E412.419 F6000
G1 Y129.4 F6000
G1 X129.2 E413.3131 F6000
G1 Y120.2 E413.7414 F6000
G1 Y100.2 E414.6727 F600
G1 Y91 E415.1011 F6000
G1 X111 E415.9486 F6000
G1 X109 E416.0417 F600
G1 X90.8 E416.8892 F6000
G1 Y110.1 E417.7786 F6000
G1 Y110.3 F600
G1 Y129.4 E418.6679 F6000
G1 X110 E419.562 F6000
;layer #9
G1 X110 Y129.8 Z2.8 F9000
G1 X129.6 E420.4746 F6000
G1 Y120.2 E420.9216 F6000
G1 Y100.2 E421.8529 F600
G1 Y90.6 E422.2999 F6000
G1 X111 E423.166 F6000
G1 X109 E423.2592 F600
G1 X90.4 E424.1253 F6000
G1 Y110.1 E425.0333 F6000
G1 Y110.3 F600
G1 Y129.8 E425.9413 F6000
G1 X110 E426.8539 F6000
G1 Y129.4 F6000
G1 X129.2 E427.748 F6000
G1 Y120.2 E428.1763 F6000
G1 Y100.2 E429.1076 F600
G1 Y91 E429.536 F6000
G1 X111 E430.3835 F6000
G1 X109 E430.4766 F600
G1 X90.8 E431.3241 F6000
G1 Y110.1 E432.2135 F6000
G1 Y110.3 F600
G1 Y129.4 E433.1028 F6000
G1 X110 E433.9969 F6000
;layer #10
M900 K0.105
G1 X110 Y129.9 Z3.08 F9000
G1 X129.7 E434.9142 F6000
G1 Y120.2 E435.3659 F6000
G1 Y100.2 E436.2971 F600
G1 Y90.5 E436.7488 F6000
G1 X111 E437.6196 F6000
G1 X109 E437.7127 F600
G1 X90.3 E438.5834 F6000
G1 Y110.1 E439.4961 F6000
G1 Y110.3 F600
G1 Y129.9 E440.4088 F6000
G1 X110 E441.3261 F6000
G1 Y129.5 F6000
G1 X129.3 E442.2248 F6000
G1 Y120.2 E442.6578 F6000
G1 Y100.2 E443.5891 F600
G1 Y90.9 E444.0221 F6000
G1 X111 E444.8743 F6000
G1 X109 E444.9674 F600
G1 X90.7 E445.8195 F6000
G1 Y110.1 E446.7135 F6000
G1 Y110.3 F600
G1 Y129.5 E447.6076 F6000
G1 X110 E448.5063 F6000
;layer #11
G1 X110 Y129.8 Z3.36 F9000
G1 X129.6 E449.4189 F6000
G1 Y120.2 E449.8659 F6000
G1 Y100.2 E450.7972 F600
G1 Y90.6 E451.2442 F6000
G1 X111 E452.1103 F6000
G1 X109 E452.2035 F600
G1 X90.4 E453.0696 F6000
G1 Y110.1 E453.9776 F6000
G1 Y110.3 F600
G1 Y129.8 E454.8856 F6000
G1 X110 E455.7982 F6000
G1 Y129.4 F6000
G1 X129.2 E456.6923 F6000
G1 Y120.2 E457.1206 F6000
G1 Y100.2 E458.0519 F600
G1 Y91 E458.4803 F6000
G1 X111 E459.3278 F6000
G1 X109 E459.4209 F600
