; generated by PrusaSlicer 2.5.0+win64 on 2023-03-19 at 16:44:23 UTC


;
;
; 

; external perimeters extrusion width = 0.40mm
; perimeters extrusion width = 0.40mm
; infill extrusion width = 0.40mm
; solid infill extrusion width = 0.40mm
; top infill extrusion width = 0.40mm
; first layer extrusion width = 0.60mm

M107
;TYPE:Custom
G90 ; use absolute coordinates
M83 ; extruder relative mode
M140 S110 ; set final bed temp
M104 S150 ; set temporary nozzle temp to prevent oozing during homing and auto bed leveling
G4 S10 ; allow partial nozzle warmup
G28 ; home all axis
G29 ; auto bed levelling
G1 Z50 F240
G1 X2 Y10 F3000
M104 S280 ; set final nozzle temp
M190 S110 ; wait for bed temp to stabilize
M109 S280 ; wait for nozzle temp to stabilize
G1 Z0.28 F240
G92 E0
G1 Y140 E10 F1500 ; prime the nozzle
G1 X2.3 F5000
G92 E0
G1 Y10 E10 F1200 ; prime the nozzle
G92 E0
M300 s2000 p880
G21 ; set units to millimeters
G90 ; use absolute coordinates
M83 ; use relative distances for extrusion
; Filament gcode
M107
;LAYER_CHANGE
;Z:0.4
;HEIGHT:0.4
;BEFORE_LAYER_CHANGE
G92 E0
;0.4
G1 Z.4 F12000
;AFTER_LAYER_CHANGE
;0.4
G10 ; retract
G1 X28.377 Y28.204
G11 ; unretract
M204 P500
;TYPE:Skirt/Brim
;WIDTH:0.6
G1 F1200
G1 X28.954 Y27.624 E.06995
G1 X30.557 Y26.533 E.16579
G1 X32.324 Y25.822 E.16291
G1 X34.154 Y25.499 E.15888
G1 X65.836 Y25.497 E2.70896
G1 X67.876 Y25.882 E.17751
G1 X69.597 Y26.617 E.15998
G1 X71.073 Y27.642 E.15365
G1 X72.384 Y28.964 E.15921
G1 X73.553 Y30.725 E.18077
G1 X74.164 Y32.275 E.14244
G1 X74.47 Y33.816 E.13433
G1 X74.512 Y65.692 E2.72553
G1 X74.261 Y67.363 E.14453
G1 X73.709 Y68.964 E.14476
G1 X72.423 Y70.99 E.20517
G1 X71.046 Y72.376 E.16709
G1 X69.393 Y73.494 E.17061
G1 X67.622 Y74.193 E.1628
G1 X65.717 Y74.512 E.16518
G1 X34.306 Y74.512 E2.68577
G1 X32.636 Y74.261 E.14437
G1 X31.036 Y73.709 E.14475
G1 X29.01 Y72.423 E.20517
G1 X27.624 Y71.046 E.16709
G1 X26.506 Y69.393 E.17061
G1 X25.807 Y67.622 E.1628
G1 X25.488 Y65.717 E.16518
G1 X25.488 Y34.306 E2.68577
G1 X25.739 Y32.636 E.14437
G1 X26.291 Y31.036 E.14475
G1 X27.577 Y29.01 E.20517
G1 X28.335 Y28.247 E.09201
M204 P1000
G1 X28.697 Y28.609 F12000
M204 P500
G1 F1200
G1 X29.3 Y28.005 E.07294
G1 X30.822 Y26.974 E.15717
G1 X32.489 Y26.309 E.15351
G1 X34.22 Y26.009 E.1502
G1 X65.766 Y26.007 E2.69734
G1 X67.702 Y26.366 E.16837
G1 X69.327 Y27.055 E.15087
G1 X70.726 Y28.022 E.14543
G1 X71.97 Y29.27 E.15066
G1 X73.11 Y30.986 E.17616
G1 X73.677 Y32.44 E.13341
G1 X73.96 Y33.89 E.12637
G1 X73.998 Y65.673 E2.71756
G1 X73.757 Y67.262 E.13748
G1 X73.233 Y68.766 E.13611
G1 X72.006 Y70.689 E.19512
G1 X70.7 Y71.994 E.15783
G1 X69.13 Y73.051 E.16184
G1 X67.46 Y73.705 E.15331
G1 X65.696 Y73.998 E.15295
G1 X34.326 Y73.998 E2.6823
G1 X32.738 Y73.757 E.13735
G1 X31.234 Y73.233 E.1361
G1 X29.311 Y72.006 E.19512
G1 X28.006 Y70.7 E.15783
G1 X26.949 Y69.13 E.16184
G1 X26.295 Y67.46 E.15331
G1 X26.002 Y65.696 E.15295
G1 X26.002 Y34.326 E2.6823
G1 X26.243 Y32.738 E.13735
G1 X26.767 Y31.234 E.1361
G1 X27.994 Y29.311 E.19512
G1 X28.654 Y28.651 E.0798
M204 P1000
G1 X29.015 Y29.014 F12000
M204 P500
G1 F1200
G1 X29.645 Y28.388 E.07593
G1 X31.085 Y27.417 E.14855
G1 X32.653 Y26.798 E.14408
G1 X34.285 Y26.52 E.14156
G1 X65.743 Y26.521 E2.68982
G1 X67.529 Y26.851 E.15531
G1 X69.058 Y27.494 E.1418
G1 X70.38 Y28.403 E.13722
G1 X71.556 Y29.576 E.14202
G1 X72.665 Y31.247 E.17148
G1 X73.188 Y32.603 E.12427
G1 X73.451 Y33.963 E.11847
G1 X73.484 Y65.654 E2.70971
G1 X73.263 Y67.116 E.12642
G1 X72.758 Y68.567 E.13143
G1 X71.589 Y70.387 E.18494
G1 X70.355 Y71.612 E.14864
G1 X68.915 Y72.583 E.14855
G1 X67.348 Y73.202 E.14405
G1 X65.674 Y73.484 E.14513
G1 X34.345 Y73.484 E2.67881
G1 X32.884 Y73.263 E.12632
G1 X31.433 Y72.758 E.13142
G1 X29.613 Y71.589 E.18494
G1 X28.388 Y70.355 E.14864
G1 X27.417 Y68.915 E.14855
G1 X26.798 Y67.348 E.14405
G1 X26.516 Y65.674 E.14513
G1 X26.516 Y34.345 E2.67881
G1 X26.737 Y32.884 E.12632
G1 X27.242 Y31.433 E.13142
G1 X28.411 Y29.613 E.18494
G1 X28.972 Y29.056 E.06759
M204 P1000
G1 X29.331 Y29.417 F12000
M204 P500
G1 F1200
G1 X29.953 Y28.799 E.07501
G1 X31.301 Y27.884 E.13928
G1 X32.816 Y27.286 E.13926
G1 X34.348 Y27.03 E.13281
G1 X65.719 Y27.036 E2.68243
G1 X67.357 Y27.336 E.14236
G1 X68.79 Y27.934 E.13273
G1 X70.035 Y28.786 E.12903
G1 X71.143 Y29.882 E.13328
G1 X72.221 Y31.507 E.16671
G1 X72.7 Y32.764 E.11501
G1 X72.941 Y34.035 E.11066
G1 X72.969 Y65.634 E2.7019
G1 X72.759 Y67.014 E.11932
G1 X72.283 Y68.367 E.12268
G1 X71.172 Y70.084 E.17482
G1 X70.047 Y71.201 E.13556
G1 X68.699 Y72.116 E.13928
G1 X67.184 Y72.714 E.13925
G1 X65.653 Y72.969 E.13276
G1 X34.365 Y72.969 E2.67531
G1 X32.986 Y72.759 E.11924
G1 X31.633 Y72.283 E.12268
G1 X29.916 Y71.172 E.17482
G1 X28.799 Y70.047 E.13556
G1 X27.884 Y68.699 E.13928
G1 X27.286 Y67.184 E.13925
G1 X27.031 Y65.653 E.13276
G1 X27.031 Y34.365 E2.67531
G1 X27.241 Y32.986 E.11924
G1 X27.717 Y31.633 E.12268
G1 X28.828 Y29.916 E.17482
G1 X29.288 Y29.459 E.05543
M204 P1000
G1 X29.646 Y29.823 F12000
M204 P500
G1 F1200
G1 X30.297 Y29.182 E.07813
G1 X31.518 Y28.351 E.12626
G1 X32.929 Y27.788 E.12991
G1 X34.37 Y27.545 E.12492
G1 X65.696 Y27.55 E2.67858
G1 X67.186 Y27.822 E.12952
G1 X68.523 Y28.374 E.12366
G1 X69.692 Y29.169 E.12085
G1 X70.729 Y30.189 E.12444
G1 X71.776 Y31.766 E.16183
G1 X72.21 Y32.922 E.1056
G1 X72.431 Y34.106 E.10294
G1 X72.455 Y65.615 E2.69416
G1 X72.255 Y66.911 E.11214
G1 X71.809 Y68.166 E.1139
G1 X70.757 Y69.779 E.16467
G1 X69.703 Y70.818 E.12656
G1 X68.482 Y71.649 E.12626
G1 X67.071 Y72.212 E.12989
G1 X65.631 Y72.455 E.12487
G1 X34.385 Y72.455 E2.67173
G1 X33.089 Y72.255 E.11209
G1 X31.834 Y71.809 E.1139
G1 X30.221 Y70.757 E.16467
G1 X29.182 Y69.703 E.12656
G1 X28.351 Y68.482 E.12626
G1 X27.788 Y67.071 E.12989
G1 X27.545 Y65.631 E.12487
G1 X27.545 Y34.385 E2.67173
G1 X27.745 Y33.089 E.11209
G1 X28.191 Y31.834 E.1139
G1 X29.243 Y30.221 E.16467
G1 X29.603 Y29.865 E.0433
M204 P1000
G1 X29.96 Y30.23 F12000
M204 P500
G1 F1200
G1 X30.64 Y29.566 E.08131
G1 X31.736 Y28.817 E.11349
G1 X33.044 Y28.29 E.12053
G1 X34.392 Y28.059 E.11693
G1 X65.673 Y28.064 E2.67472
G1 X67.017 Y28.308 E.11681
G1 X68.258 Y28.815 E.1146
G1 X69.35 Y29.553 E.1127
G1 X70.316 Y30.497 E.11548
G1 X71.331 Y32.025 E.15685
G1 X71.72 Y33.079 E.09605
G1 X71.921 Y34.175 E.09534
G1 X71.941 Y65.595 E2.68649
G1 X71.751 Y66.806 E.10488
G1 X71.336 Y67.963 E.10508
G1 X70.343 Y69.473 E.1545
G1 X69.36 Y70.434 E.1176
G1 X68.264 Y71.183 E.11349
G1 X66.956 Y71.71 E.12053
G1 X65.609 Y71.941 E.11689
G1 X34.405 Y71.941 E2.66809
G1 X33.194 Y71.751 E.10484
G1 X32.037 Y71.336 E.10508
G1 X30.527 Y70.343 E.1545
G1 X29.566 Y69.36 E.1176
G1 X28.817 Y68.264 E.11349
G1 X28.29 Y66.956 E.12053
G1 X28.059 Y65.609 E.11689
G1 X28.059 Y34.405 E2.66809
G1 X28.249 Y33.194 E.10484
G1 X28.664 Y32.037 E.10508
G1 X29.657 Y30.527 E.1545
G1 X29.917 Y30.272 E.03116
M204 P1000
G1 X30.277 Y30.638 F12000
M204 P500
G1 F1200
G1 X30.951 Y29.976 E.08083
G1 X31.957 Y29.282 E.10449
G1 X33.16 Y28.792 E.11109
G1 X34.414 Y28.573 E.10883
G1 X65.649 Y28.578 E2.67074
G1 X66.896 Y28.809 E.10845
G1 X68.037 Y29.28 E.10551
G1 X69.007 Y29.937 E.10021
G1 X69.938 Y30.846 E.11122
G1 X70.86 Y32.233 E.14241
G1 X71.218 Y33.194 E.08774
G1 X71.412 Y34.245 E.09138
G1 X71.427 Y65.574 E2.67875
G1 X71.247 Y66.7 E.09752
G1 X70.863 Y67.759 E.0963
G1 X69.964 Y69.126 E.1399
G1 X69.049 Y70.024 E.10963
G1 X68.043 Y70.718 E.10449
G1 X66.84 Y71.208 E.11108
G1 X65.586 Y71.427 E.1088
G1 X34.426 Y71.427 E2.66439
G1 X33.3 Y71.247 E.0975
G1 X32.241 Y70.863 E.0963
G1 X30.874 Y69.964 E.1399
G1 X29.976 Y69.049 E.10963
G1 X29.282 Y68.043 E.10449
G1 X28.792 Y66.84 E.11108
G1 X28.573 Y65.586 E.10879
G1 X28.573 Y34.426 E2.66439
G1 X28.753 Y33.3 E.0975
G1 X29.137 Y32.241 E.0963
G1 X30.036 Y30.874 E.1399
G1 X30.234 Y30.68 E.02367
M204 P1000
G1 X30.595 Y31.046 F12000
M204 P500
G1 F1200
G1 X31.264 Y30.385 E.08041
G1 X32.18 Y29.746 E.0955
G1 X33.278 Y29.293 E.10159
G1 X34.437 Y29.087 E.10062
G1 X65.625 Y29.092 E2.66669
G1 X66.774 Y29.309 E.09997
G1 X67.814 Y29.744 E.09643
G1 X68.664 Y30.321 E.08786
G1 X69.559 Y31.195 E.10697
G1 X70.388 Y32.441 E.12794
G1 X70.729 Y33.352 E.0832
G1 X70.901 Y34.313 E.08352
G1 X70.913 Y65.554 E2.67122
G1 X70.755 Y66.548 E.08606
G1 X70.39 Y67.555 E.09159
G1 X69.583 Y68.779 E.12535
G1 X68.736 Y69.615 E.10176
G1 X67.82 Y70.254 E.0955
G1 X66.722 Y70.707 E.10158
G1 X65.563 Y70.913 E.10059
G1 X34.446 Y70.913 E2.6607
G1 X33.452 Y70.755 E.08605
G1 X32.445 Y70.39 E.09159
G1 X31.221 Y69.583 E.12535
G1 X30.385 Y68.736 E.10176
G1 X29.746 Y67.82 E.0955
G1 X29.293 Y66.722 E.10158
G1 X29.087 Y65.563 E.10059
G1 X29.087 Y34.446 E2.6607
G1 X29.245 Y33.452 E.08605
G1 X29.61 Y32.445 E.09159
G1 X30.417 Y31.221 E.12535
G1 X30.552 Y31.088 E.01623
M204 P1000
G1 X30.914 Y31.452 F12000
M204 P500
G1 F1200
G1 X31.578 Y30.792 E.08007
G1 X32.406 Y30.209 E.08653
G1 X33.399 Y29.794 E.09203
G1 X34.46 Y29.601 E.09228
G1 X65.6 Y29.606 E2.66255
G1 X66.649 Y29.808 E.09134
G1 X67.589 Y30.207 E.08736
G1 X68.321 Y30.705 E.07568
G1 X69.181 Y31.544 E.10275
G1 X69.917 Y32.648 E.11346
G1 X70.238 Y33.509 E.07858
G1 X70.391 Y34.38 E.07557
G1 X70.399 Y65.533 E2.66376
G1 X70.252 Y66.441 E.07862
G1 X69.918 Y67.349 E.08277
G1 X69.202 Y68.433 E.11108
G1 X68.422 Y69.208 E.09403
G1 X67.594 Y69.791 E.08653
G1 X66.601 Y70.206 E.09203
G1 X65.54 Y70.399 E.09225
G1 X34.467 Y70.399 E2.6569
G1 X33.559 Y70.252 E.07861
G1 X32.651 Y69.918 E.08277
G1 X31.567 Y69.202 E.11108
G1 X30.792 Y68.422 E.09403
G1 X30.209 Y67.594 E.08653
G1 X29.794 Y66.601 E.09203
G1 X29.601 Y65.54 E.09224
G1 X29.601 Y34.467 E2.6569
G1 X29.748 Y33.559 E.07861
G1 X30.082 Y32.651 E.08277
G1 X30.798 Y31.567 E.11108
G1 X30.871 Y31.494 E.00883
M204 P1000
G1 X31.235 Y31.857 F12000
M204 P500
G1 F1200
G1 X31.895 Y31.197 E.07982
G1 X32.634 Y30.671 E.07758
G1 X33.521 Y30.294 E.08242
G1 X34.484 Y30.115 E.08378
G1 X65.574 Y30.12 E2.65831
G1 X66.521 Y30.307 E.08256
G1 X67.363 Y30.669 E.07831
G1 X67.978 Y31.088 E.06368
G1 X68.803 Y31.893 E.09854
G1 X69.447 Y32.858 E.09919
G1 X69.736 Y33.623 E.06989
G1 X69.881 Y34.447 E.07154
G1 X69.885 Y65.511 E2.6562
G1 X69.749 Y66.331 E.07104
G1 X69.447 Y67.141 E.07394
G1 X68.82 Y68.088 E.09707
G1 X68.105 Y68.803 E.08643
G1 X67.366 Y69.329 E.07758
G1 X66.479 Y69.706 E.08242
G1 X65.516 Y69.885 E.08375
G1 X34.489 Y69.885 E2.653
G1 X33.669 Y69.749 E.07104
G1 X32.859 Y69.447 E.07394
G1 X31.912 Y68.82 E.09707
G1 X31.197 Y68.105 E.08643
G1 X30.671 Y67.366 E.07758
G1 X30.294 Y66.479 E.08242
G1 X30.115 Y65.516 E.08375
G1 X30.115 Y34.489 E2.653
G1 X30.251 Y33.669 E.07104
G1 X30.553 Y32.859 E.07394
G1 X31.192 Y31.9 E.09851
M204 P1000
G1 X31.562 Y32.258 F12000
M204 P500
G1 F1200
G1 X32.244 Y31.576 E.08248
G1 X32.861 Y31.133 E.06497
G1 X33.696 Y30.778 E.07751
G1 X34.507 Y30.63 E.07056
G1 X65.549 Y30.635 E2.65422
G1 X66.346 Y30.791 E.06941
G1 X67.097 Y31.11 E.06978
G1 X67.636 Y31.473 E.05559
G1 X68.425 Y32.243 E.09421
G1 X68.976 Y33.068 E.08487
G1 X69.246 Y33.781 E.06519
G1 X69.37 Y34.511 E.06331
G1 X69.37 Y65.489 E2.64882
G1 X69.246 Y66.219 E.06331
G1 X68.977 Y66.932 E.06514
G1 X68.438 Y67.742 E.08321
G1 X67.756 Y68.424 E.08248
G1 X67.139 Y68.867 E.06497
G1 X66.304 Y69.222 E.07751
G1 X65.493 Y69.37 E.07054
G1 X34.511 Y69.37 E2.64913
G1 X33.781 Y69.246 E.06331
G1 X33.068 Y68.977 E.06514
G1 X32.258 Y68.438 E.08321
G1 X31.576 Y67.756 E.08248
G1 X31.133 Y67.139 E.06497
G1 X30.778 Y66.304 E.07751
G1 X30.63 Y65.493 E.07054
G1 X30.63 Y34.511 E2.64913
G1 X30.754 Y33.781 E.06331
G1 X31.023 Y33.068 E.06514
G1 X31.529 Y32.308 E.07807
M204 P1000
G1 X31.943 Y32.603 F12000
M204 P500
G1 F1200
G1 X32.593 Y31.953 E.0786
G1 X33.092 Y31.593 E.05264
G1 X33.82 Y31.278 E.06783
G1 X34.532 Y31.144 E.06191
G1 X65.524 Y31.149 E2.65
G1 X66.172 Y31.275 E.05643
G1 X66.834 Y31.552 E.06136
G1 X67.295 Y31.858 E.04729
G1 X68.047 Y32.592 E.08981
G1 X68.507 Y33.28 E.0708
G1 X68.745 Y33.895 E.05638
G1 X68.856 Y34.534 E.0554
G1 X68.856 Y65.466 E2.64491
G1 X68.745 Y66.105 E.0554
G1 X68.507 Y66.72 E.05636
G1 X68.057 Y67.397 E.06954
G1 X67.407 Y68.047 E.0786
G1 X66.908 Y68.407 E.05264
G1 X66.18 Y68.722 E.06783
G1 X65.468 Y68.856 E.06189
G1 X34.534 Y68.856 E2.64507
G1 X33.895 Y68.745 E.0554
G1 X33.28 Y68.507 E.05636
G1 X32.603 Y68.057 E.06954
G1 X31.953 Y67.407 E.0786
G1 X31.593 Y66.908 E.05264
G1 X31.278 Y66.18 E.06783
G1 X31.144 Y65.468 E.06189
G1 X31.144 Y34.534 E2.64507
G1 X31.255 Y33.895 E.0554
G1 X31.493 Y33.28 E.05636
G1 X31.91 Y32.653 E.06441
M204 P1000
G1 X32.325 Y32.949 F12000
M204 P500
G1 F1200
G1 X32.943 Y32.331 E.07477
G1 X33.327 Y32.051 E.04058
G1 X33.949 Y31.776 E.05814
G1 X34.557 Y31.658 E.05304
G1 X65.498 Y31.663 E2.64554
G1 X66.044 Y31.774 E.04767
G1 X66.573 Y31.996 E.0491
G1 X66.954 Y32.245 E.0389
G1 X67.668 Y32.942 E.08531
G1 X68.04 Y33.495 E.05698
G1 X68.244 Y34.013 E.04763
G1 X68.342 Y34.557 E.04728
G1 X68.342 Y65.443 E2.64083
G1 X68.244 Y65.987 E.04728
G1 X68.04 Y66.505 E.04763
G1 X67.675 Y67.051 E.05612
G1 X67.057 Y67.669 E.07477
G1 X66.673 Y67.949 E.04058
G1 X66.051 Y68.224 E.05814
G1 X65.443 Y68.342 E.05302
G1 X34.557 Y68.342 E2.64085
G1 X34.013 Y68.244 E.04728
G1 X33.495 Y68.04 E.04763
G1 X32.949 Y67.675 E.05612
G1 X32.331 Y67.057 E.07477
G1 X32.051 Y66.673 E.04058
G1 X31.776 Y66.051 E.05814
G1 X31.658 Y65.443 E.05302
G1 X31.658 Y34.557 E2.64085
G1 X31.756 Y34.013 E.04728
G1 X31.96 Y33.495 E.04763
G1 X32.291 Y32.999 E.05099
M204 P1000
G1 X32.706 Y33.295 F12000
M204 P500
G1 F1200
G1 X33.293 Y32.707 E.07103
G1 X33.565 Y32.508 E.02881
G1 X34.081 Y32.274 E.04845
G1 X34.584 Y32.172 E.04388
G1 X65.472 Y32.177 E2.64104
G1 X65.871 Y32.259 E.03488
G1 X66.318 Y32.443 E.04133
G1 X66.615 Y32.632 E.03013
G1 X67.29 Y33.291 E.08065
G1 X67.573 Y33.713 E.04343
G1 X67.744 Y34.135 E.03896
G1 X67.828 Y34.582 E.03889
G1 X67.828 Y65.418 E2.63657
G1 X67.744 Y65.865 E.03889
G1 X67.573 Y66.287 E.03897
G1 X67.294 Y66.705 E.04297
G1 X66.707 Y67.293 E.07103
G1 X66.435 Y67.492 E.02881
G1 X65.919 Y67.726 E.04845
G1 X65.416 Y67.828 E.04388
G1 X34.582 Y67.828 E2.63644
G1 X34.135 Y67.744 E.03889
G1 X33.713 Y67.573 E.03897
G1 X33.295 Y67.294 E.04297
G1 X32.707 Y66.707 E.07103
G1 X32.508 Y66.435 E.02881
G1 X32.274 Y65.919 E.04845
G1 X32.172 Y65.416 E.04388
G1 X32.172 Y34.582 E2.63644
G1 X32.256 Y34.135 E.03889
G1 X32.427 Y33.713 E.03897
G1 X32.673 Y33.345 E.03784
M204 P1000
G1 X33.087 Y33.64 F12000
M204 P500
G1 F1200
G1 X33.642 Y33.086 E.06702
G1 X33.842 Y32.941 E.02116
G1 X34.262 Y32.756 E.0392
G1 X34.609 Y32.686 E.03031
G1 X65.442 Y32.691 E2.63639
G1 X65.738 Y32.755 E.02587
G1 X66.068 Y32.892 E.03053
G1 X66.278 Y33.021 E.02111
G1 X66.912 Y33.64 E.07574
G1 X67.109 Y33.934 E.03022
G1 X67.245 Y34.263 E.03045
G1 X67.314 Y34.609 E.03016
G1 X67.314 Y65.391 E2.63203
G1 X67.245 Y65.737 E.03016
G1 X67.109 Y66.066 E.03046
G1 X66.913 Y66.36 E.03016
G1 X66.358 Y66.914 E.06702
G1 X66.158 Y67.059 E.02116
G1 X65.738 Y67.244 E.0392
G1 X65.391 Y67.314 E.03031
G1 X34.609 Y67.314 E2.63201
G1 X34.263 Y67.245 E.03016
G1 X33.934 Y67.109 E.03046
G1 X33.64 Y66.913 E.03016
G1 X33.086 Y66.358 E.06702
G1 X32.941 Y66.158 E.02116
G1 X32.756 Y65.738 E.0392
G1 X32.686 Y65.391 E.03031
G1 X32.686 Y34.609 E2.63201
G1 X32.755 Y34.263 E.03016
G1 X32.891 Y33.934 E.03046
G1 X33.054 Y33.69 E.02503
M204 P1000
G1 X33.469 Y33.986 F12000
M204 P500
G1 F1200
G1 X33.988 Y33.467 E.06283
G1 X34.114 Y33.378 E.01309
G1 X34.438 Y33.239 E.03017
G1 X34.634 Y33.2 E.01711
G1 X65.413 Y33.205 E2.63174
G1 X65.561 Y33.239 E.01295
G1 X65.849 Y33.358 E.02668
G1 X65.978 Y33.439 E.01302
G1 X66.532 Y33.987 E.06659
G1 X66.643 Y34.154 E.01718
G1 X66.76 Y34.436 E.02614
G1 X66.8 Y34.634 E.01725
G1 X66.8 Y65.366 E2.62771
G1 X66.76 Y65.564 E.01725
G1 X66.643 Y65.846 E.02614
G1 X66.531 Y66.014 E.01725
G1 X66.012 Y66.533 E.06283
G1 X65.886 Y66.622 E.01309
G1 X65.562 Y66.761 E.03017
G1 X65.366 Y66.8 E.01711
G1 X34.634 Y66.8 E2.62771
G1 X34.436 Y66.76 E.01725
G1 X34.154 Y66.643 E.02614
G1 X33.986 Y66.531 E.01725
G1 X33.467 Y66.012 E.06283
G1 X33.378 Y65.886 E.01309
G1 X33.239 Y65.562 E.03017
G1 X33.2 Y65.366 E.01711
G1 X33.2 Y34.634 E2.62771
G1 X33.24 Y34.436 E.01725
G1 X33.357 Y34.154 E.02614
